public/asset/icon/cloud-sun-solid.svg

<svg width="640" height="512" viewBox="0 0 640 512" fill="none" xmlns="http://www.w3.org/2000/svg">
<g clip-path="url(#clip0_303_2185)">
<path d="M96.0002 208C96.0002 146.14 146.14 96.8996 207.1 96.8996C259.75 96.8996 303.6 133.35 315.6 182.32C334.7 173.1 354.7 168 375.1 168C379.707 168 384.252 168.381 388.78 168.82L412.91 134.06C418.055 126.646 413.807 116.39 404.926 114.79L317.2 98.7796L301.2 10.2096C299.6 1.3246 289.4 -2.9194 281.9 2.2256L208 53.5396L134.1 2.2246C126.6 -2.9204 116.4 1.3256 114.8 10.2096L98.7802 98.7796L10.2102 114.8C1.3262 116.4 -2.9218 126.7 2.2232 134.1L53.5232 208.04L2.2242 281.9C-2.9208 289.314 1.3267 299.57 10.2072 301.17L98.7802 317.2L114.79 405.78C116.394 414.661 126.65 418.91 134.06 413.762L144.77 406.33C147.495 371.18 164.62 339.82 190.6 318.23C137.1 309.8 96.0002 263.9 96.0002 208ZM128 208C128 252.18 163.82 288 208 288C217.729 288 226.93 286.004 235.56 282.824C242.562 249.174 261.09 219.974 287.13 199.384C282.8 159.3 249.2 128 208 128C163.8 128 128 163.8 128 208ZM575.2 325.6C575.325 323.6 575.945 321.856 575.945 319.981C575.945 284.601 547.195 255.981 512.845 255.981C500.225 255.981 488.596 259.73 478.716 265.98C461.096 227.1 422.216 200.88 376.816 200.88C315.066 200.88 264.816 251 264.816 311.98C264.816 314.98 265.568 317.723 265.693 320.598C216.063 324.348 176.813 365.338 176.813 415.968C175.1 469 218.1 512 271.1 512H543.1C596.1 512 639.1 469.01 639.1 416.01C639.1 373.9 612.7 338.6 575.2 325.6Z" fill="white"/>
</g>
<defs>
<clipPath id="clip0_303_2185">
<rect width="640" height="512" fill="white"/>
</clipPath>
</defs>
</svg>

<svg xmlns="http://www.w3.org/2000/svg" viewBox="0 0 640 512"><!--! Font Awesome Pro 6.1.2 by @fontawesome - https://fontawesome.com License - https://fontawesome.com/license (Commercial License) Copyright 2022 Fonticons, Inc. --><path d="M96 208c0-61.86 50.14-111.1 111.1-111.1c52.65 0 96.5 36.45 108.5 85.42C334.7 173.1 354.7 168 375.1 168c4.607 0 9.152 .3809 13.68 .8203l24.13-34.76c5.145-7.414 .8965-17.67-7.984-19.27L317.2 98.78L301.2 10.21C299.6 1.325 289.4-2.919 281.9 2.226L208 53.54L134.1 2.225C126.6-2.92 116.4 1.326 114.8 10.21L98.78 98.78L10.21 114.8C1.326 116.4-2.922 126.7 2.223 134.1l51.3 73.94L2.224 281.9c-5.145 7.414-.8975 17.67 7.983 19.27L98.78 317.2l16.01 88.58c1.604 8.881 11.86 13.13 19.27 7.982l10.71-7.432c2.725-35.15 19.85-66.51 45.83-88.1C137.1 309.8 96 263.9 96 208zM128 208c0 44.18 35.82 80 80 80c9.729 0 18.93-1.996 27.56-5.176c7.002-33.65 25.53-62.85 51.57-83.44C282.8 159.3 249.2 128 208 128C163.8 128 128 163.8 128 208zM575.2 325.6c.125-2 .7453-3.744 .7453-5.619c0-35.38-28.75-64-63.1-64c-12.62 0-24.25 3.749-34.13 9.999c-17.62-38.88-56.5-65.1-101.9-65.1c-61.75 0-112 50.12-112 111.1c0 3 .7522 5.743 .8772 8.618c-49.63 3.75-88.88 44.74-88.88 95.37C175.1 469 218.1 512 271.1 512h272c53 0 96-42.99 96-95.99C639.1 373.9 612.7 338.6 575.2 325.6z"/></svg>
